src/img/icon-word.svg

<svg enable-background="new 0 0 459 459" viewBox="0 0 459 459" xmlns="http://www.w3.org/2000/svg"><path d="m408 0h-357c-28.05 0-51 22.95-51 51v357c0 28.05 22.95 51 51 51h357c28.05 0 51-22.95 51-51v-357c0-28.05-22.95-51-51-51zm-89.25 357h-38.25l-51-191.25-51 191.25h-38.25l-61.2-255h43.35l38.25 191.25 51-191.25h35.7l51 191.25 38.25-191.25h43.351z"/></svg>

<?xml version="1.0" encoding="iso-8859-1"?>
<!-- Generator: Adobe Illustrator 16.0.0, SVG Export Plug-In . SVG Version: 6.00 Build 0)  -->
<!DOCTYPE svg PUBLIC "-//W3C//DTD SVG 1.1//EN" "http://www.w3.org/Graphics/SVG/1.1/DTD/svg11.dtd">
<svg version="1.1" id="Capa_1" xmlns="http://www.w3.org/2000/svg" xmlns:xlink="http://www.w3.org/1999/xlink" x="0px" y="0px"
	 viewBox="0 0 459 459" style="enable-background:new 0 0 459 459;" xml:space="preserve">
<g>
	<g id="drive-ms-word">
		<path d="M408,0H51C22.95,0,0,22.95,0,51v357c0,28.05,22.95,51,51,51h357c28.05,0,51-22.95,51-51V51C459,22.95,436.05,0,408,0z
			 M318.75,357H280.5l-51-191.25L178.5,357h-38.25l-61.2-255h43.35l38.25,191.25l51-191.25h35.7l51,191.25L336.6,102h43.351
			L318.75,357z"/>
	</g>
</g>
<g>
</g>
<g>
</g>
<g>
</g>
<g>
</g>
<g>
</g>
<g>
</g>
<g>
</g>
<g>
</g>
<g>
</g>
<g>
</g>
<g>
</g>
<g>
</g>
<g>
</g>
<g>
</g>
<g>
</g>
</svg>
